src/assets/icon/navbar_elements2.svg

<svg width="24" height="24" viewBox="0 0 24 24" fill="none" xmlns="http://www.w3.org/2000/svg">
<mask id="mask0_253_4740" style="mask-type:alpha" maskUnits="userSpaceOnUse" x="0" y="0" width="24" height="24">
<rect width="24" height="24" fill="#D9D9D9"/>
</mask>
<g mask="url(#mask0_253_4740)">
<path d="M11.25 12.75V16C11.25 16.2125 11.3219 16.3906 11.4658 16.5343C11.6096 16.6781 11.7878 16.75 12.0003 16.75C12.2129 16.75 12.391 16.6781 12.5345 16.5343C12.6782 16.3906 12.75 16.2125 12.75 16V12.75H16C16.2125 12.75 16.3906 12.6781 16.5343 12.5343C16.6781 12.3904 16.75 12.2122 16.75 11.9998C16.75 11.7871 16.6781 11.609 16.5343 11.4655C16.3906 11.3218 16.2125 11.25 16 11.25H12.75V8C12.75 7.7875 12.6781 7.60942 12.5343 7.46575C12.3904 7.32192 12.2122 7.25 11.9998 7.25C11.7871 7.25 11.609 7.32192 11.4655 7.46575C11.3218 7.60942 11.25 7.7875 11.25 8V11.25H8C7.7875 11.25 7.60942 11.3219 7.46575 11.4658C7.32192 11.6096 7.25 11.7878 7.25 12.0003C7.25 12.2129 7.32192 12.391 7.46575 12.5345C7.60942 12.6782 7.7875 12.75 8 12.75H11.25ZM12.0017 21.5C10.6877 21.5 9.45267 21.2507 8.2965 20.752C7.14033 20.2533 6.13467 19.5766 5.2795 18.7218C4.42433 17.8669 3.74725 16.8617 3.24825 15.706C2.74942 14.5503 2.5 13.3156 2.5 12.0017C2.5 10.6877 2.74933 9.45267 3.248 8.2965C3.74667 7.14033 4.42342 6.13467 5.27825 5.2795C6.13308 4.42433 7.13833 3.74725 8.294 3.24825C9.44967 2.74942 10.6844 2.5 11.9983 2.5C13.3123 2.5 14.5473 2.74933 15.7035 3.248C16.8597 3.74667 17.8653 4.42342 18.7205 5.27825C19.5757 6.13308 20.2528 7.13833 20.7518 8.294C21.2506 9.44967 21.5 10.6844 21.5 11.9983C21.5 13.3123 21.2507 14.5473 20.752 15.7035C20.2533 16.8597 19.5766 17.8653 18.7218 18.7205C17.8669 19.5757 16.8617 20.2528 15.706 20.7518C14.5503 21.2506 13.3156 21.5 12.0017 21.5ZM12 20C14.2333 20 16.125 19.225 17.675 17.675C19.225 16.125 20 14.2333 20 12C20 9.76667 19.225 7.875 17.675 6.325C16.125 4.775 14.2333 4 12 4C9.76667 4 7.875 4.775 6.325 6.325C4.775 7.875 4 9.76667 4 12C4 14.2333 4.775 16.125 6.325 17.675C7.875 19.225 9.76667 20 12 20Z" fill="#CCCCCC"/>
</g>
</svg>

<svg xmlns="http://www.w3.org/2000/svg" width="24" height="24" fill="none" xmlns:v="https://vecta.io/nano"><mask id="A" maskUnits="userSpaceOnUse" x="0" y="0" width="24" height="24" mask-type="alpha"><path fill="#d9d9d9" d="M0 0h24v24H0z"/></mask><g mask="url(#A)"><path d="M11.25 12.75V16c0 .212.072.391.216.534s.322.216.534.216.391-.072.534-.216.216-.322.216-.534v-3.25H16c.212 0 .391-.072.534-.216s.216-.322.216-.534-.072-.391-.216-.534-.322-.216-.534-.216h-3.25V8c0-.213-.072-.391-.216-.534S12.212 7.25 12 7.25s-.391.072-.534.216-.216.322-.216.534v3.25H8c-.213 0-.391.072-.534.216s-.216.322-.216.534.072.391.216.534.322.216.534.216h3.25zm.752 8.75c-1.314 0-2.549-.249-3.705-.748s-2.162-1.175-3.017-2.03-1.532-1.86-2.031-3.016-.748-2.39-.748-3.704.249-2.549.748-3.705 1.175-2.162 2.03-3.017 1.86-1.532 3.016-2.031 2.39-.748 3.704-.748 2.549.249 3.705.748 2.162 1.175 3.017 2.03 1.532 1.86 2.031 3.016.748 2.39.748 3.704-.249 2.549-.748 3.705-1.175 2.162-2.03 3.017-1.86 1.532-3.016 2.031-2.39.748-3.704.748zM12 20c2.233 0 4.125-.775 5.675-2.325S20 14.233 20 12s-.775-4.125-2.325-5.675S14.233 4 12 4s-4.125.775-5.675 2.325S4 9.767 4 12s.775 4.125 2.325 5.675S9.767 20 12 20z" fill="#ccc"/></g></svg>
